X:1
T:O Croix dresse sur le monde - H30
C:Air breton
M:6/8
L:1/8
K:Em
B,O|E2E GEG|B2AG3|ABAG2F|E6!fine!||FGAG2F|E3D3|
EEE GEG|F3-Fz2|EEE GEG|B2A G3|ABAG2F|E3-EzB,O||
